X: 1904
T: Arra Mountains, The
R: slip jig
M: 9/8
K: Adorian
|:E2 A EAB cBc|E2 A EAF GED|E2 A EAB c2 d|e2 e ege dBG:|
A2 a gef gfg|A2 a ged Bcd|A2 a gef g2 e|d2 d ege dBG|
A2 a gef gfg|A2 a ged Bcd|e2 e faf g2 e|d2 d ege dBG||

